;FLAVOR:UltiGCode
;TIME:7432
;MATERIAL:6337
;MATERIAL2:0
;NOZZLE_DIAMETER:0.4
;MINX:93.047
;MINY:84.095
;MINZ:0.27
;MAXX:129.964
;MAXY:138.432
;MAXZ:22.07
;Generated with Cura_SteamEngine 4.2.1
M82 ;absolute extrusion mode

G92 E0
G92 E0
G10
;LAYER_COUNT:219
;LAYER:0
M107
G0 F4320 X98.496 Y92.24 Z0.27
;TYPE:SKIRT
G11
G1 F1800 X98.879 Y91.872 E0.05019
G1 X99.137 Y91.679 E0.08064
G1 X99.306 Y91.564 E0.09996
G1 X99.384 Y91.512 E0.10882
G1 X101.455 Y90.182 E0.34141
G1 X103.698 Y88.649 E0.59815
G1 X105.893 Y87.055 E0.8545
G1 X107.884 Y85.528 E1.09162
G1 X108.238 Y85.29 E1.13193
G1 X109.029 Y84.823 E1.21873
G1 X109.165 Y84.746 E1.2335
G1 X109.616 Y84.506 E1.28178
G1 X110.102 Y84.293 E1.33192
G1 X110.614 Y84.155 E1.38203
G1 X111.142 Y84.095 E1.43225
G1 X111.672 Y84.116 E1.48237
G1 X112.087 Y84.188 E1.52218
G1 X113.358 Y84.49 E1.64563
G1 X113.493 Y84.525 E1.65881
G1 X113.686 Y84.579 E1.67775
G1 X114.185 Y84.76 E1.72791
G1 X114.651 Y85.014 E1.77807
G1 X114.904 Y85.195 E1.80746
G1 X116.019 Y86.065 E1.94111
G1 X116.052 Y86.091 E1.94508
G1 X116.423 Y86.387 E1.98993
G1 X118.576 Y88.024 E2.24552
G1 X120.83 Y89.642 E2.50772
G1 X123.106 Y91.179 E2.76725
G1 X123.324 Y91.319 E2.79174
G1 X123.379 Y91.355 E2.79795
G1 X123.774 Y91.62 E2.8429
G1 X124.375 Y92.129 E2.91732
G1 X124.589 Y92.356 E2.94681
G1 X124.663 Y92.437 E2.95717
G1 X126.08 Y94.037 E3.15914
G1 X126.115 Y94.077 E3.16417
G1 X126.53 Y94.56 E3.22434
G1 X126.889 Y95.061 E3.28259
G1 X127.433 Y95.98 E3.38351
G1 X127.469 Y96.042 E3.39028
G1 X127.891 Y96.789 E3.47136
G1 X127.918 Y96.838 E3.47665
G1 X128.268 Y97.481 E3.54583
G1 X128.506 Y98.02 E3.60151
G1 X128.738 Y98.695 E3.66896
G1 X128.755 Y98.749 E3.67431
G1 X129.08 Y99.746 E3.77341
G1 X129.095 Y99.793 E3.77807
G1 X129.304 Y100.466 E3.84466
G1 X129.415 Y100.934 E3.89012
G1 X129.457 Y101.187 E3.91435
G1 X129.473 Y101.291 E3.9243
G1 X129.501 Y101.498 E3.94404
G1 X129.504 Y101.522 E3.94632
G1 X129.62 Y102.425 E4.03236
G1 X129.626 Y102.469 E4.03655
G1 X129.781 Y103.809 E4.16403
G1 X129.786 Y103.858 E4.16868
G1 X129.89 Y104.882 E4.26595
G1 X129.894 Y104.926 E4.27012
G1 X129.955 Y105.613 E4.3353
G1 X129.964 Y106.106 E4.3819
G1 X129.917 Y107.018 E4.46819
G1 X129.914 Y107.077 E4.47378
G1 X129.848 Y108.038 E4.5648
G1 X129.742 Y110.733 E4.81968
G1 X129.709 Y113.261 E5.0586
G1 X129.709 Y114.114 E5.1392
G1 X129.699 Y114.818 E5.20574
G1 X129.696 Y114.917 E5.2151
G1 X129.664 Y115.671 E5.28642
G1 X129.586 Y118.462 E5.55027
G1 X129.586 Y121.145 E5.80381
G1 X129.67 Y124.052 E6.07864
G1 X129.693 Y124.593 E6.12981
G1 X129.696 Y124.689 E6.13889
G1 X129.709 Y125.521 E6.21752
G1 X129.709 Y127.814 E6.43421
G1 X129.699 Y128.512 E6.50017
G1 X129.651 Y129.041 E6.55037
G1 X129.452 Y129.759 E6.62078
G1 X129.035 Y130.813 E6.72789
G1 X128.618 Y131.872 E6.83545
G1 X128.387 Y132.349 E6.88553
G1 X128.182 Y132.663 E6.92097
G1 X128.04 Y132.857 E6.94369
G1 X127.696 Y133.26 E6.99376
G1 X127.294 Y133.607 E7.04394
G1 X126.973 Y133.819 E7.0803
G1 X126.12 Y134.317 E7.17364
G1 X126.07 Y134.346 E7.1791
G1 X125.282 Y134.789 E7.26453
G1 X122.908 Y136.214 E7.52618
G1 X121.701 Y136.975 E7.66102
G1 X120.957 Y137.452 E7.74454
G1 X120.686 Y137.609 E7.77414
G1 X120.108 Y137.911 E7.83576
G1 X120.003 Y137.964 E7.84688
G1 X119.797 Y138.063 E7.86848
G1 X119.303 Y138.256 E7.9186
G1 X118.785 Y138.373 E7.96878
G1 X118.342 Y138.41 E8.01079
G1 X117.309 Y138.431 E8.10843
G1 X117.234 Y138.432 E8.11552
G1 X116.226 Y138.431 E8.21077
G1 X116.179 Y138.431 E8.21521
G1 X115.337 Y138.419 E8.29479
G1 X115.287 Y138.418 E8.29952
G1 X112.847 Y138.349 E8.53019
G1 X110.131 Y138.349 E8.78685
G1 X108.056 Y138.4 E8.983
G1 X107.378 Y138.424 E9.04711
G1 X107.298 Y138.426 E9.05467
G1 X106.887 Y138.431 E9.09351
G1 X105.414 Y138.431 E9.23271
G1 X104.737 Y138.421 E9.2967
G1 X104.208 Y138.373 E9.34689
G1 X103.693 Y138.246 E9.39702
G1 X103.277 Y138.08 E9.43934
G1 X102.658 Y137.786 E9.5041
G1 X102.335 Y137.612 E9.53877
G1 X101.551 Y137.134 E9.62555
G1 X101.503 Y137.104 E9.63089
G1 X100.938 Y136.747 E9.69405
G1 X99.152 Y135.635 E9.89287
G1 X96.938 Y134.336 E10.13545
G1 X96.09 Y133.853 E10.22767
G1 X95.65 Y133.556 E10.27783
G1 X95.094 Y133.007 E10.35167
G1 X94.929 Y132.803 E10.37647
G1 X94.628 Y132.366 E10.42661
G1 X94.419 Y131.948 E10.47078
G1 X94.285 Y131.628 E10.50356
G1 X94.265 Y131.58 E10.50847
G1 X93.954 Y130.806 E10.5873
G1 X93.94 Y130.771 E10.59086
G1 X93.542 Y129.749 E10.69451
G1 X93.387 Y129.242 E10.74461
G1 X93.304 Y128.588 E10.80691
G1 X93.295 Y128.32 E10.83225
G1 X93.293 Y128.203 E10.84331
G1 X93.292 Y125.511 E11.0977
G1 X93.292 Y125.46 E11.10252
G1 X93.302 Y124.75 E11.16962
G1 X93.305 Y124.65 E11.17907
G1 X93.334 Y123.966 E11.24377
G1 X93.414 Y121.18 E11.50716
G1 X93.414 Y118.48 E11.76231
G1 X93.337 Y115.722 E12.02304
G1 X93.324 Y115.472 E12.0467
G1 X93.322 Y115.41 E12.05256
G1 X93.296 Y114.623 E12.12697
G1 X93.294 Y114.512 E12.13746
G1 X93.292 Y113.116 E12.26938
G1 X93.253 Y110.326 E12.53306
G1 X93.094 Y106.892 E12.85792
G1 X93.05 Y106.202 E12.92326
G1 X93.047 Y105.81 E12.96031
G1 X93.057 Y105.601 E12.98008
G1 X93.063 Y105.508 E12.98889
G1 X93.087 Y105.185 E13.01949
G1 X93.089 Y105.155 E13.02234
G1 X93.174 Y104.129 E13.11963
G1 X93.179 Y104.076 E13.12466
G1 X93.234 Y103.515 E13.17792
G1 X93.261 Y103.305 E13.19793
G1 X93.426 Y102.268 E13.29716
G1 X93.437 Y102.2 E13.30367
G1 X93.504 Y101.826 E13.33958
G1 X93.513 Y101.78 E13.34401
G1 X93.63 Y101.174 E13.40233
G1 X93.677 Y100.965 E13.42258
G1 X93.927 Y99.992 E13.51751
G1 X93.943 Y99.933 E13.52329
G1 X94.207 Y98.975 E13.61719
G1 X94.22 Y98.929 E13.62171
G1 X94.397 Y98.319 E13.68173
G1 X94.669 Y97.648 E13.75015
G1 X95.181 Y96.684 E13.8533
G1 X95.214 Y96.622 E13.85994
G1 X95.66 Y95.821 E13.94658
G1 X95.685 Y95.777 E13.95136
G1 X96.019 Y95.197 E14.01461
G1 X96.373 Y94.691 E14.07297
G1 X97.021 Y93.918 E14.16829
G1 X97.064 Y93.867 E14.17459
G1 X98.019 Y92.771 E14.31196
G1 X98.053 Y92.734 E14.31671
G1 X98.496 Y92.24 E14.37942
G0 F4320 X98.756 Y92.473
G1 F1800 X99.121 Y92.126 E14.42701
G1 X99.334 Y91.968 E14.45207
G1 X99.503 Y91.853 E14.47139
G1 X99.573 Y91.807 E14.4793
G1 X101.631 Y90.485 E14.71045
G1 X103.89 Y88.941 E14.96903
G1 X106.126 Y87.319 E15.23007
G1 X108.097 Y85.806 E15.46488
G1 X108.416 Y85.591 E15.50123
G1 X109.207 Y85.124 E15.58804
G1 X109.329 Y85.055 E15.60128
G1 X109.78 Y84.815 E15.64956
G1 X110.242 Y84.615 E15.69714
G1 X110.73 Y84.49 E15.74474
G1 X111.232 Y84.443 E15.79239
G1 X111.734 Y84.477 E15.83994
G1 X112.006 Y84.529 E15.8661
G1 X113.277 Y84.831 E15.98956
G1 X113.398 Y84.862 E16.00136
G1 X113.591 Y84.916 E16.0203
G1 X114.064 Y85.09 E16.06793
G1 X114.689 Y85.471 E16.1371
G1 X115.804 Y86.341 E16.27075
G1 X115.834 Y86.364 E16.27432
G1 X116.216 Y86.669 E16.32051
G1 X118.393 Y88.325 E16.579
G1 X120.616 Y89.92 E16.83755
G1 X122.915 Y91.472 E17.09968
G1 X123.134 Y91.613 E17.12429
G1 X123.184 Y91.645 E17.1299
G1 X123.579 Y91.91 E17.17485
G1 X124.12 Y92.369 E17.24189
G1 X124.334 Y92.596 E17.27138
G1 X124.401 Y92.669 E17.28074
G1 X125.818 Y94.269 E17.48271
G1 X125.849 Y94.305 E17.4872
G1 X126.264 Y94.788 E17.54738
G1 X126.588 Y95.24 E17.59993
G1 X127.132 Y96.159 E17.70085
G1 X127.164 Y96.214 E17.70687
G1 X127.586 Y96.961 E17.78794
G1 X127.611 Y97.005 E17.79272
G1 X127.961 Y97.648 E17.86191
G1 X128.175 Y98.134 E17.91209
G1 X128.407 Y98.809 E17.97954
G1 X128.423 Y98.857 E17.98432
G1 X128.748 Y99.854 E18.08342
G1 X128.761 Y99.896 E18.08757
G1 X128.97 Y100.569 E18.15417
G1 X129.07 Y100.991 E18.19515
G1 X129.112 Y101.244 E18.21938
G1 X129.126 Y101.338 E18.22837
G1 X129.154 Y101.545 E18.24811
G1 X129.157 Y101.566 E18.25011
G1 X129.273 Y102.469 E18.33614
G1 X129.278 Y102.509 E18.33995
G1 X129.433 Y103.849 E18.46743
G1 X129.438 Y103.893 E18.47161
G1 X129.542 Y104.917 E18.56888
G1 X129.546 Y104.957 E18.57268
G1 X129.607 Y105.644 E18.63785
G1 X129.615 Y106.088 E18.67982
G1 X129.568 Y107 E18.76612
G1 X129.565 Y107.053 E18.77113
G1 X129.5 Y108 E18.86084
G1 X129.391 Y110.752 E19.1211
G1 X129.359 Y113.256 E19.35775
G1 X129.359 Y114.109 E19.43836
G1 X129.349 Y114.813 E19.5049
G1 X129.346 Y114.902 E19.51331
G1 X129.314 Y115.662 E19.58519
G1 X129.236 Y118.453 E19.84905
G1 X129.236 Y121.155 E20.10439
G1 X129.32 Y124.069 E20.37987
G1 X129.343 Y124.608 E20.43085
G1 X129.346 Y124.694 E20.43899
G1 X129.359 Y125.526 E20.51762
G1 X129.359 Y127.809 E20.73336
G1 X129.349 Y128.507 E20.79933
G1 X129.302 Y129.009 E20.84698
G1 X129.126 Y129.63 E20.90797
G1 X128.711 Y130.678 E21.01449
G1 X128.712 Y130.678 E21.01459
G1 X128.293 Y131.743 E21.12274
G1 X128.072 Y132.196 E21.17037
G1 X127.9 Y132.456 E21.19983
G1 X127.758 Y132.65 E21.22255
G1 X127.429 Y133.032 E21.27019
G1 X127.044 Y133.357 E21.3178
G1 X126.797 Y133.517 E21.34561
G1 X125.944 Y134.015 E21.43895
G1 X125.899 Y134.041 E21.44387
G1 X125.085 Y134.499 E21.53213
G1 X122.756 Y135.897 E21.78883
G1 X121.512 Y136.681 E21.92778
G1 X120.768 Y137.158 E22.0113
G1 X120.524 Y137.299 E22.03793
G1 X119.946 Y137.601 E22.09956
G1 X119.851 Y137.649 E22.10962
G1 X119.645 Y137.748 E22.13121
G1 X119.176 Y137.929 E22.17872
G1 X118.683 Y138.034 E22.22635
G1 X118.335 Y138.06 E22.25933
G1 X117.302 Y138.081 E22.35697
G1 X117.234 Y138.082 E22.3634
G1 X116.226 Y138.081 E22.45865
G1 X116.184 Y138.081 E22.46262
G1 X115.342 Y138.069 E22.5422
G1 X115.297 Y138.068 E22.54645
G1 X112.857 Y137.999 E22.77712
G1 X110.123 Y137.999 E23.03549
G1 X108.034 Y138.051 E23.23296
G1 X107.366 Y138.074 E23.29612
G1 X107.294 Y138.076 E23.30293
G1 X106.883 Y138.081 E23.34177
G1 X105.419 Y138.081 E23.48012
G1 X104.742 Y138.071 E23.5441
G1 X104.241 Y138.023 E23.59166
G1 X103.753 Y137.897 E23.63929
G1 X103.427 Y137.764 E23.67257
G1 X102.808 Y137.47 E23.73732
G1 X102.517 Y137.313 E23.76857
G1 X101.733 Y136.835 E23.85534
G1 X101.69 Y136.808 E23.86014
G1 X101.125 Y136.451 E23.9233
G1 X99.34 Y135.34 E24.12199
G1 X97.077 Y134.012 E24.36994
G1 X96.264 Y133.549 E24.45836
G1 X95.847 Y133.266 E24.50598
G1 X95.366 Y132.787 E24.57013
G1 X95.201 Y132.583 E24.59492
G1 X94.917 Y132.167 E24.64252
G1 X94.741 Y131.812 E24.67997
G1 X94.607 Y131.492 E24.71275
G1 X94.59 Y131.45 E24.71703
G1 X94.279 Y130.676 E24.79586
G1 X94.266 Y130.644 E24.79912
G1 X93.868 Y129.622 E24.90277
G1 X93.723 Y129.14 E24.95033
G1 X93.654 Y128.577 E25.00393
G1 X93.645 Y128.309 E25.02928
G1 X93.643 Y128.203 E25.03929
G1 X93.642 Y125.511 E25.29369
G1 X93.642 Y125.465 E25.29804
G1 X93.652 Y124.755 E25.36514
G1 X93.655 Y124.665 E25.37365
G1 X93.684 Y123.982 E25.43825
G1 X93.764 Y121.19 E25.7022
G1 X93.764 Y118.47 E25.95924
G1 X93.687 Y115.706 E26.22054
G1 X93.674 Y115.454 E26.24439
G1 X93.672 Y115.399 E26.24959
G1 X93.646 Y114.612 E26.324
G1 X93.644 Y114.511 E26.33354
G1 X93.642 Y113.111 E26.46584
G1 X93.603 Y110.336 E26.72811
G1 X93.443 Y106.87 E27.05599
G1 X93.399 Y106.18 E27.12133
G1 X93.397 Y105.826 E27.15479
G1 X93.407 Y105.617 E27.17456
G1 X93.412 Y105.534 E27.18242
G1 X93.436 Y105.211 E27.21302
G1 X93.438 Y105.184 E27.21558
G1 X93.523 Y104.158 E27.31287
G1 X93.527 Y104.11 E27.31742
G1 X93.582 Y103.549 E27.37069
G1 X93.606 Y103.36 E27.3887
G1 X93.771 Y102.323 E27.48792
G1 X93.782 Y102.262 E27.49378
G1 X93.849 Y101.888 E27.52969
G1 X93.857 Y101.846 E27.53373
G1 X93.974 Y101.24 E27.59205
G1 X94.016 Y101.052 E27.61026
G1 X94.266 Y100.079 E27.70519
G1 X94.28 Y100.025 E27.71046
G1 X94.544 Y99.067 E27.80437
G1 X94.556 Y99.026 E27.80841
G1 X94.733 Y98.416 E27.86843
G1 X94.978 Y97.812 E27.93002
G1 X95.49 Y96.848 E28.03317
G1 X95.52 Y96.792 E28.03918
G1 X95.966 Y95.991 E28.12581
G1 X95.989 Y95.952 E28.13009
G1 X96.323 Y95.372 E28.19334
G1 X96.641 Y94.916 E28.24588
G1 X97.289 Y94.143 E28.3412
G1 X97.328 Y94.097 E28.3469
G1 X98.283 Y93.001 E28.48427
G1 X98.313 Y92.967 E28.48856
G1 X98.756 Y92.473 E28.55126
G0 F4320 X101.231 Y94.719
;TYPE:SUPPORT
G1 F1800 X102.52 Y94.63 E28.67336
G1 X102.531 Y95.628 E28.76768
G1 X102.881 Y95.975 E28.81425
G1 X108.651 Y95.975 E29.35952
G1 X109.037 Y95.813 E29.39908
G1 X110.659 Y94.156 E29.6182
G1 X110.659 Y91.692 E29.85105
G1 X110.406 Y91.314 E29.89403
G1 X109.143 Y90.792 E30.02317
G1 X109.143 Y89.768 E30.11994
G1 X109.339 Y89.287 E30.16903
G1 X110.229 Y88.381 E30.28904
G1 X111.248 Y87.82 E30.39897
G1 X111.758 Y88.457 E30.47608
G1 X112.238 Y88.532 E30.52199
G1 X112.738 Y88.196 E30.57892
G1 X113.71 Y89.168 E30.70882
G1 X113.943 Y89.729 E30.76622
G1 X113.943 Y91.124 E30.89805
G1 X112.58 Y91.39 E31.02928
G1 X112.279 Y91.756 E31.07407
G1 X112.279 Y93.932 E31.2797
G1 X112.443 Y94.32 E31.3195
G1 X114.148 Y95.975 E31.54405
G1 X120.124 Y95.975 E32.10878
G1 X120.473 Y95.627 E32.15536
G1 X120.481 Y94.625 E32.25005
G1 X121.765 Y94.711 E32.37166
G1 X123.76 Y96.998 E32.65845
G1 X125.024 Y99.236 E32.90134
G1 X125.778 Y101.547 E33.13106
G1 X126.04 Y103.602 E33.32683
G1 X126.278 Y105.926 E33.5476
G1 X125.819 Y106.706 E33.63313
G1 X125.12 Y107.163 E33.71205
G1 X124.942 Y107.582 E33.75507
G1 X125.444 Y110.222 E34.00902
G1 X125.75 Y110.527 E34.04984
G1 X125.82 Y110.65 E34.06322
G1 X125.502 Y110.294 E34.10833
G1 X120.137 Y110.295 E34.61532
G1 X119.525 Y110.913 E34.69751
G1 X119.525 Y114.924 E35.07655
G1 X120.141 Y115.54 E35.15888
G1 X125.324 Y115.539 E35.64867
G1 X125.626 Y115.382 E35.68083
G1 X125.414 Y115.747 E35.72072
G1 X125.436 Y116.178 E35.76151
G1 X125.186 Y116.817 E35.82635
G1 X124.732 Y117.41 E35.89692
G1 X124.669 Y117.844 E35.93837
G1 X125.067 Y118.882 E36.04342
G1 X125.067 Y120.503 E36.19661
G1 X124.656 Y121.704 E36.31656
G1 X124.728 Y122.134 E36.35776
G1 X125.183 Y122.721 E36.42795
G1 X125.527 Y123.998 E36.55293
G1 X125.75 Y124.233 E36.58354
G1 X125.816 Y124.346 E36.59591
G1 X125.507 Y123.996 E36.64003
G1 X120.137 Y123.997 E37.14749
G1 X119.525 Y124.615 E37.22968
G1 X119.525 Y128.626 E37.60872
G1 X120.141 Y129.242 E37.69105
G1 X125.324 Y129.241 E38.18084
G1 X125.691 Y129.05 E38.21994
G1 X125.19 Y130.504 E38.36527
G1 X125.084 Y130.649 E38.38224
G1 X120.756 Y130.648 E38.79124
G1 X120.378 Y130.898 E38.83407
G1 X119.39 Y133.227 E39.07314
G1 X119.445 Y133.601 E39.10886
G1 X118.879 Y134.396 E39.20109
G1 X118.207 Y134.732 E39.27209
G1 X115.6 Y134.731 E39.51845
G1 X114.032 Y133.952 E39.6839
G1 X114.288 Y132.864 E39.78953
G1 X114.185 Y132.393 E39.83509
G1 X113.74 Y132.223 E39.8801
G1 X109.258 Y132.164 E40.30369
G1 X108.819 Y132.369 E40.34948
G1 X108.751 Y132.84 E40.39445
G1 X109.003 Y134.006 E40.50718
G1 X107.369 Y134.731 E40.67611
G1 X104.8 Y134.731 E40.91888
G1 X104.114 Y134.386 E40.99144
G1 X103.614 Y133.689 E41.0725
G1 X103.75 Y133.428 E41.10032
G1 X103.769 Y133.002 E41.14061
G1 X102.885 Y130.9 E41.3561
G1 X102.506 Y130.649 E41.39906
G1 X97.925 Y130.648 E41.83196
G1 X97.836 Y130.536 E41.84548
G1 X97.822 Y130.316 E41.86632
G1 X97.733 Y130.199 E41.88021
G1 X97.765 Y130.106 E41.8895
G1 X97.723 Y129.683 E41.92967
G1 X97.375 Y129.084 E41.99514
G1 X97.677 Y129.241 E42.0273
G1 X102.86 Y129.242 E42.5171
G1 X103.476 Y128.626 E42.59942
G1 X103.476 Y124.612 E42.97874
G1 X102.86 Y123.996 E43.06107
G1 X97.535 Y123.997 E43.56428
G1 X97.196 Y124.325 E43.60886
G1 X97.557 Y123.688 E43.67805
G1 X97.624 Y123.33 E43.71246
G1 X97.816 Y122.723 E43.77263
G1 X98.519 Y121.792 E43.88287
G1 X98.523 Y121.327 E43.92682
G1 X97.947 Y120.541 E44.0189
G1 X97.94 Y120.515 E44.02145
G1 X97.933 Y118.908 E44.17331
G1 X98.325 Y117.803 E44.28411
G1 X98.255 Y117.371 E44.32546
G1 X97.839 Y116.836 E44.38951
G1 X97.836 Y116.631 E44.40888
G1 X97.728 Y116.49 E44.42567
G1 X97.761 Y116.395 E44.43517
G1 X97.721 Y115.973 E44.47523
G1 X97.376 Y115.382 E44.5399
G1 X97.677 Y115.539 E44.57198
G1 X102.86 Y115.54 E45.06177
G1 X103.476 Y114.924 E45.1441
G1 X103.476 Y110.91 E45.52342
G1 X102.86 Y110.294 E45.60574
G1 X97.677 Y110.295 E46.09554
G1 X97.264 Y110.51 E46.13954
G1 X97.277 Y110.487 E46.14203
G1 X97.686 Y110.063 E46.19771
G1 X97.836 Y109.67 E46.23746
G1 X97.821 Y109.268 E46.27547
G1 X98.652 Y108.447 E46.38586
G1 X98.816 Y107.996 E46.43121
G1 X98.538 Y107.612 E46.47601
G1 X97.188 Y106.704 E46.62976
G1 X96.719 Y105.898 E46.71788
G1 X96.917 Y103.757 E46.92107
G1 X97.269 Y101.788 E47.11009
G1 X97.954 Y99.306 E47.35341
G1 X99.234 Y97.01 E47.60182
G1 X101.231 Y94.719 E47.88902
G0 F4320 X102.825 Y97.199
G1 F1800 X102.412 Y97.822 E47.95966
